src/assets/household-item.svg

<svg width="73" height="73" viewBox="0 0 73 73" fill="none" xmlns="http://www.w3.org/2000/svg">
<path d="M30.0588 31.4902C29.2683 31.4902 28.6275 32.131 28.6275 32.9216V35.7843C28.6275 36.5747 29.2683 37.2157 30.0588 37.2157C30.8494 37.2157 31.4902 36.5747 31.4902 35.7843V32.9216C31.4902 32.131 30.8494 31.4902 30.0588 31.4902ZM42.9412 31.4902C42.1508 31.4902 41.5098 32.131 41.5098 32.9216V35.7843C41.5098 36.5747 42.1508 37.2157 42.9412 37.2157C43.7316 37.2157 44.3726 36.5747 44.3726 35.7843V32.9216C44.3726 32.131 43.7316 31.4902 42.9412 31.4902ZM22.5441 51.5294H19.6814C18.8908 51.5294 18.25 52.1704 18.25 52.9608C18.25 53.7512 18.8908 54.3921 19.6814 54.3921H22.5441C23.3347 54.3921 23.9755 53.7512 23.9755 52.9608C23.9755 52.1704 23.3347 51.5294 22.5441 51.5294ZM53.3186 51.5294H50.4559C49.6655 51.5294 49.0245 52.1704 49.0245 52.9608C49.0245 53.7512 49.6655 54.3921 50.4559 54.3921H53.3186C54.109 54.3921 54.75 53.7512 54.75 52.9608C54.75 52.1704 54.109 51.5294 53.3186 51.5294Z" fill="#024EC9"/>
<path d="M67.2743 7.15686C66.4839 7.15686 65.843 7.79769 65.843 8.58823V45.8039H37.9312V8.58823C37.9312 7.79769 37.2902 7.15686 36.4998 7.15686C35.7093 7.15686 35.0685 7.79769 35.0685 8.58823V45.8039H7.15669V8.58823C7.15669 7.79769 6.51572 7.15686 5.72532 7.15686C4.93491 7.15686 4.29395 7.79769 4.29395 8.58823C4.29395 10.375 4.29395 62.8561 4.29395 65.8431C4.29395 66.6335 4.93491 67.2745 5.72532 67.2745H7.15669V71.5686C7.15669 72.359 7.79766 73 8.58806 73H14.3136C14.9704 73 15.543 72.553 15.7021 71.9159L16.8625 67.2745H56.1373L57.2975 71.9159C57.4567 72.553 58.0292 73 58.6861 73H64.4116C65.202 73 65.843 72.359 65.843 71.5686V67.2745H67.2743C68.0647 67.2745 68.7057 66.6335 68.7057 65.8431C68.7057 64.222 68.7057 13.9081 68.7057 8.58823C68.7057 7.79769 68.0647 7.15686 67.2743 7.15686ZM65.843 57.2549H37.9312V48.6667H65.843V57.2549ZM35.0685 48.6667V57.2549H7.15669V48.6667H35.0685ZM13.1959 70.1372H10.0194V67.2745H13.9116L13.1959 70.1372ZM62.9802 70.1372H59.8037L59.088 67.2745H62.9802V70.1372ZM7.15669 64.4118V60.1176H65.843V64.4118C42.37 64.4118 40.4189 64.4118 7.15669 64.4118Z" fill="#024EC9"/>
<path d="M71.5686 0H1.43137C0.640826 0 0 0.640826 0 1.43137V8.58824C0 9.37878 0.640826 10.0196 1.43137 10.0196H71.5686C72.359 10.0196 73 9.37878 73 8.58824V1.43137C73 0.640826 72.359 0 71.5686 0ZM70.1373 7.15686H2.86275V2.86275H70.1373V7.15686Z" fill="#024EC9"/>
</svg>

<svg width="73" height="73" fill="none" xmlns="http://www.w3.org/2000/svg"><path d="M30.059 31.49c-.79 0-1.431.641-1.431 1.432v2.862a1.431 1.431 0 002.862 0v-2.862c0-.791-.64-1.432-1.431-1.432zm12.882 0c-.79 0-1.431.641-1.431 1.432v2.862a1.432 1.432 0 002.863 0v-2.862c0-.791-.641-1.432-1.432-1.432zM22.544 51.53h-2.863a1.431 1.431 0 000 2.862h2.863a1.431 1.431 0 100-2.863zm30.775 0h-2.863a1.432 1.432 0 000 2.862h2.863a1.431 1.431 0 000-2.863z" fill="#024EC9"/><path d="M67.274 7.157c-.79 0-1.431.64-1.431 1.431v37.216H37.931V8.588a1.431 1.431 0 00-2.862 0v37.216H7.157V8.588a1.431 1.431 0 00-2.863 0v57.255c0 .79.64 1.431 1.431 1.431h1.432v4.295c0 .79.64 1.431 1.431 1.431h5.726c.656 0 1.229-.447 1.388-1.084l1.16-4.641h39.275l1.16 4.64c.16.638.732 1.085 1.39 1.085h5.725c.79 0 1.431-.641 1.431-1.431v-4.294h1.431c.79 0 1.432-.642 1.432-1.432V8.588c0-.79-.641-1.431-1.432-1.431zm-1.431 50.098H37.931v-8.588h27.912v8.588zm-30.775-8.588v8.588H7.157v-8.588h27.912zm-21.872 21.47h-3.177v-2.862h3.893l-.716 2.862zm49.784 0h-3.176l-.716-2.862h3.892v2.862zM7.157 64.412v-4.294h58.686v4.294H7.157z" fill="#024EC9"/><path d="M71.569 0H1.43C.641 0 0 .64 0 1.431v7.157c0 .79.64 1.432 1.431 1.432H71.57c.79 0 1.431-.641 1.431-1.432V1.431A1.433 1.433 0 0071.569 0zm-1.432 7.157H2.863V2.863h67.274v4.294z" fill="#024EC9"/></svg>
